src/icons/vala.svg

<svg viewBox="0 0 64 64" xmlns="http://www.w3.org/2000/svg">
  <path
    d="M26.357 57.882L25.246 10.732C22.01 11.9453 19.4823 13.8433 17.663 16.426C15.8643 19.0107 14.965 22.224 14.965 26.066C14.965 26.942 15.0103 27.661 15.101 28.223C15.2123 28.7623 15.3243 29.2003 15.437 29.537C15.5497 29.8517 15.6513 30.099 15.742 30.279C15.8533 30.459 15.909 30.6163 15.909 30.751C14.7183 30.751 13.6627 30.639 12.742 30.415C11.82 30.167 11.0443 29.7847 10.415 29.268C9.80834 28.7527 9.33667 28.0677 9.00001 27.213C8.68467 26.3597 8.52701 25.304 8.52701 24.046C8.52701 22.518 8.85234 21.0127 9.50301 19.53C10.177 18.048 11.087 16.6437 12.233 15.317C13.4017 13.9923 14.7617 12.768 16.313 11.644C17.8863 10.5207 19.56 9.55432 21.334 8.74499C23.1307 7.91366 24.9953 7.27366 26.928 6.82499C28.8827 6.35166 30.8263 6.11499 32.759 6.11499C33.2757 6.11499 33.7477 6.12632 34.175 6.14899C34.6237 6.17099 35.0723 6.20432 35.521 6.24899L36.129 48.714L50.654 6.44999H55.473L36.298 57.883H26.355L26.357 57.882Z"
    fill="#9575CD"
  />
</svg>

<svg xmlns="http://www.w3.org/2000/svg" viewBox="0 0 64 64"><defs><linearGradient id="c" x1="25.058" x2="25.058" y1="47.028" y2="39.999" gradientUnits="userSpaceOnUse"><stop stop-color="#181818" stop-opacity="0" offset="0"/><stop stop-color="#181818" offset=".5"/><stop stop-color="#181818" stop-opacity="0" offset="1"/></linearGradient><linearGradient id="e" x1="24" x2="24" y1="5" y2="43" gradientTransform="matrix(1.4324 0 0 1.4363 134.03 -5.86)" gradientUnits="userSpaceOnUse"><stop stop-color="#fff" offset="0"/><stop stop-color="#fff" stop-opacity=".235" offset=".063"/><stop stop-color="#fff" stop-opacity=".157" offset=".951"/><stop stop-color="#fff" stop-opacity=".392" offset="1"/></linearGradient><linearGradient id="d" x1="31.293" x2="31.293" y1="5.008" y2="59.329" gradientTransform="translate(136.41 -3.39)" gradientUnits="userSpaceOnUse"><stop stop-color="#ad65d6" offset="0"/><stop stop-color="#7a36b1" offset="1"/></linearGradient><radialGradient id="a" cx="4.993" cy="43.5" r="2.5" gradientTransform="matrix(2.0038 0 0 1.4 27.988 -17.4)" gradientUnits="userSpaceOnUse"><stop stop-color="#181818" offset="0"/><stop stop-color="#181818" stop-opacity="0" offset="1"/></radialGradient><radialGradient id="b" cx="4.993" cy="43.5" r="2.5" gradientTransform="matrix(2.0038 0 0 1.4 -20.012 -104.4)" gradientUnits="userSpaceOnUse"><stop stop-color="#181818" offset="0"/><stop stop-color="#181818" stop-opacity="0" offset="1"/></radialGradient></defs><g opacity=".6"><path transform="matrix(1.579 0 0 .71429 130.515 24.54)" d="M38 40h5v7h-5z" fill="url(#a)"/><path transform="matrix(-1.579 0 0 -.71429 130.515 24.54)" d="M-10-47h5v7h-5z" fill="url(#b)"/><path transform="matrix(1.579 0 0 .71429 130.515 24.54)" d="M10 40h28v7H10z" fill="url(#c)"/></g><rect x="140.91" y="1.11" width="55" height="55" rx="3" ry="3" color="#000" fill="url(#d)"/><rect x="141.91" y="2.039" width="53" height="53.142" rx="2" ry="2" fill="none" opacity=".3" stroke="url(#e)" stroke-linecap="round" stroke-linejoin="round"/><rect x="140.91" y="1.11" width="55" height="55" rx="3" ry="3" color="#000" fill="none" opacity=".5" stroke="#260063" stroke-linecap="round" stroke-linejoin="round"/><path d="m26.357 57.882-1.111-47.15q-4.854 1.82-7.583 5.694-2.698 3.877-2.698 9.64 0 1.314.136 2.157.167.809.336 1.314.169.472.305.742.167.27.167.472-1.786 0-3.167-.336-1.383-.372-2.327-1.147-.91-.773-1.415-2.055-.473-1.28-.473-3.167 0-2.292.976-4.516 1.011-2.223 2.73-4.213 1.753-1.987 4.08-3.673 2.36-1.685 5.021-2.899 2.695-1.247 5.594-1.92 2.932-.71 5.831-.71.775 0 1.416.034.673.033 1.346.1l.608 42.465L50.654 6.45h4.819L36.298 57.883h-9.943z" fill="#9575cd"/></svg>
